assets/pure.svg

<svg width="145" height="176" viewBox="0 0 145 176" fill="none" xmlns="http://www.w3.org/2000/svg">
<g clip-path="url(#clip0_84_579)">
<path d="M44.67 121.78C40.0617 121.751 35.4596 121.437 30.89 120.84C23.2475 119.878 15.6891 118.337 8.28003 116.23L6.78003 115.78L7.07003 114.23C8.61405 106.671 10.7267 99.2403 13.39 92C19.25 76.12 26.39 65.5299 34.65 60.5099C53.66 48.9999 77.53 49.1799 95.47 60.9999L96.16 61.4599L96.25 62.2799C98.48 83.6499 87.64 104.92 68.64 116.47C62.82 120 54.79 121.78 44.67 121.78ZM10.83 113.31C18.28 115.31 50.72 123.31 66.83 113.47C84.44 102.77 94.58 83.22 92.83 63.47C76.09 52.84 54.06 52.8399 36.45 63.5499C20.37 73.3299 12.47 105.78 10.83 113.31Z" fill="#EEEEEE" stroke="#EEEEEE" stroke-width="2" stroke-miterlimit="10"/>
<path d="M141.132 32.0668L7.88757 113.081L9.70589 116.071L142.95 35.0574L141.132 32.0668Z" fill="#EEEEEE" stroke="#EEEEEE" stroke-width="2" stroke-miterlimit="10"/>
<path d="M40.81 75.38L39.09 64.73C36.25 47.24 34.38 45.38 16.9 42.54L6.25 40.81L16.9 39.09C34.38 36.25 36.25 34.38 39.09 16.9L40.81 6.25L42.54 16.9C45.38 34.38 47.24 36.25 64.73 39.09L75.38 40.81L64.73 42.54C47.24 45.38 45.38 47.24 42.54 64.73L40.81 75.38ZM26.15 40.81C35.05 43.11 38.51 46.58 40.81 55.48C43.12 46.58 46.58 43.11 55.48 40.81C46.58 38.51 43.12 35.05 40.81 26.15C38.51 35.05 35.05 38.51 26.15 40.81Z" fill="#EEEEEE" stroke="#EEEEEE" stroke-width="2" stroke-miterlimit="10"/>
<path d="M67 169.63L65.29 159C62.45 141.51 60.5799 139.65 43.0999 136.81L32.45 135.08L43.0999 133.36C60.5799 130.52 62.45 128.65 65.29 111.17L67 100.49L68.73 111.15C71.57 128.63 73.4299 130.5 90.9199 133.34L101.57 135.06L90.9199 136.79C73.4299 139.63 71.57 141.49 68.73 158.98L67 169.63ZM52.3499 135.06C61.2499 137.36 64.71 140.83 67.01 149.73C69.31 140.83 72.78 137.36 81.68 135.06C72.78 132.76 69.31 129.3 67.01 120.4C64.71 129.3 61.2499 132.76 52.3499 135.06Z" fill="#EEEEEE" stroke="#EEEEEE" stroke-width="2" stroke-miterlimit="10"/>
</g>
<defs>
<clipPath id="clip0_84_579">
<rect width="144.33" height="175.88" fill="white"/>
</clipPath>
</defs>
</svg>

<svg xmlns="http://www.w3.org/2000/svg" viewBox="0 0 144.33 175.88"><defs><style>.cls-1{fill:#1f1f1f;stroke:#1f1f1f;stroke-miterlimit:10;stroke-width:2px;}</style></defs><g id="Layer_2" data-name="Layer 2"><g id="Layer_1-2" data-name="Layer 1"><path class="cls-1" d="M44.67,121.78a111.69,111.69,0,0,1-13.78-.94,152.07,152.07,0,0,1-22.61-4.61l-1.5-.45.29-1.55A153.22,153.22,0,0,1,13.39,92c5.86-15.88,13-26.47,21.26-31.49h0C53.66,49,77.53,49.18,95.47,61l.69.46.09.82c2.23,21.37-8.61,42.64-27.61,54.19C62.82,120,54.79,121.78,44.67,121.78Zm-33.84-8.47c7.45,2,39.89,10,56,.16,17.61-10.7,27.75-30.25,26-50-16.74-10.63-38.77-10.63-56.38.08C20.37,73.33,12.47,105.78,10.83,113.31Z"/><rect class="cls-1" x="-2.55" y="72.31" width="155.94" height="3.5" transform="translate(-27.5 49.97) rotate(-31.3)"/><path class="cls-1" d="M40.81,75.38,39.09,64.73C36.25,47.24,34.38,45.38,16.9,42.54L6.25,40.81,16.9,39.09c17.48-2.84,19.35-4.71,22.19-22.19L40.81,6.25,42.54,16.9c2.84,17.48,4.7,19.35,22.19,22.19l10.65,1.72L64.73,42.54c-17.49,2.84-19.35,4.7-22.19,22.19ZM26.15,40.81c8.9,2.3,12.36,5.77,14.66,14.67,2.31-8.9,5.77-12.37,14.67-14.67-8.9-2.3-12.36-5.76-14.67-14.66C38.51,35.05,35.05,38.51,26.15,40.81Z"/><path class="cls-1" d="M67,169.63,65.29,159c-2.84-17.49-4.71-19.35-22.19-22.19l-10.65-1.73,10.65-1.72c17.48-2.84,19.35-4.71,22.19-22.19L67,100.49l1.73,10.66c2.84,17.48,4.7,19.35,22.19,22.19l10.65,1.72-10.65,1.73c-17.49,2.84-19.35,4.7-22.19,22.19ZM52.35,135.06c8.9,2.3,12.36,5.77,14.66,14.67,2.3-8.9,5.77-12.37,14.67-14.67-8.9-2.3-12.37-5.76-14.67-14.66C64.71,129.3,61.25,132.76,52.35,135.06Z"/></g></g></svg>
